X:1
T:The Lion of Judah
T:The Lion of Judah
T:William Howard Doane
T:Frances Jane (Fanny) Crosby, 1878
T:Public Domain Courtesy of the Cyber Hymnal™
T:Public Domain Courtesy of the Cyber Hymnal™
C:William Howard Doane
Z:Public Domain
Z:Courtesy of the Cyber Hymnal™
%%score ( 1 2 ) ( 3 4 )
L:1/8
Q:1/4=110
M:3/4
K:Bb
V:1 treble 
V:2 treble 
V:3 bass 
V:4 bass 
V:1
 [DF]2 | [Fd]2 [DB]2 [DF]>[B,D] | [CF]2 [CE]2 [CE]2 | [Ec]2 [EA]2 [EF]>[EA] | [Ec]2 [DB]2 [DF]2 | %5
w: 1.~How|sweet- ly o’er the|moun- tain of|Zi- on, love- ly|Zi- on, The|
w: 2.~O|hap- py, hap- py|tid- ings, the|king- dom now is|op- ened, The|
w: 3.~Ho-|san- na in the|high- est, all|glo- ry ev- er-|last- ing, The|
 [FB]3 [Fc] [Fd]2 | [Ge]2 [Fd]2 [Fd]2 | [=Ec]2 [EG]2 [Ec]2 | F4 [EF]2 | [Dd]2 [DB]2 [DF]>[B,D] | %10
w: an- them of|ag- es comes|sweep- ing a-|long; The|an- them of the|
w: seals are all|brok- en; pro-|claim it a-|far; From|bond- age and op-|
w: cross and its|ban- ner tri-|um- phant shall|wave; Ho-|san- na in the|
 [DF]2 [CE]2 [CE]2 | ([Ec]2 [EA]2) [EF]>[EA] | [Ec]2 [DB]2 [DF]2 | [FB]3 [Fc] [Fd]2 | %14
w: faith- ful, we|hear, * and, re-|joic- ing, Our|hearts in glad|
w: press- ion by~Him|we * are de-|liv- ered, The|Li- on of|
w: high- est, all|glo~ry * ev- er-|last- ing, The|Li- on of|
 [Ge]2 [EG]2 [Gc]2 | [Fc]2 [FB]2 A2 | [DB]4 ||"^Refrain" [FA]>[FB] | [Fc]3 [F=B] [Fc]2 | %19
w: mea- sure keep|tune with the|song.|||
w: Ju- dah, the|bright Morn- ing|Star.|O the|Li- on of|
w: Ju- dah His|peo- ple will|save.|||
 [Fd]2 [Fc]2 [Af]2 | [G=e]2 [Bd]2 ([GB]>[=Ed]) | [Fd]2 [Fc]2 [FA]>[FB] | [Fc]3 [F=B] [Fc]2 | %23
w: ||||
w: Ju- dah hath|tri- umphed for- *|ev- er, O the|Li- on of|
w: ||||
 [Fd]2 [Fc]2 [FA]2 | ([Ac][GB]) [FA]2 [=EG]2 | F4 [EF]2 | [Dd]2 [DB]2 [DF]>[B,D] | %27
w: ||||
w: Ju- dah is|might- * y and|strong. Sweet|an- them of the|
w: ||||
 [DF]2 [CE]2 [CE]2 | [Ec]2 [EA]2 [EF]>[EA] | [Ec]2 [DB]2 [DF]2 | [FB]3 [Fc] [Fd]2 | %31
w: ||||
w: faith- ful, We|hear it, and, re-|joic- ing, Our|hearts in glad|
w: ||||
 [Ge]2 [EG]2 [Gc]2 | [Fc]2 [FB]2 A2 | [DB]4 |] %34
w: |||
w: mea- sure keep|tune with the|song.|
w: |||
V:2
 x2 | x6 | x6 | x6 | x6 | x6 | x6 | x6 | F4 x2 | x6 | x6 | x6 | x6 | x6 | x6 | x4 (FE) | x4 || x2 | %18
 x6 | x6 | x6 | x6 | x6 | x6 | x6 | F4 x2 | x6 | x6 | x6 | x6 | x6 | x6 | x4 (FE) | x4 |] %34
V:3
 [B,,B,]2 | [B,,B,]2 [B,,B,]2 [B,,B,]>[B,,B,] | [F,A,]2 [F,A,]2 [F,A,]2 | %3
 [F,A,]2 [F,C]2 [F,A,]>F, | [B,,F,]2 [B,,F,]2 [B,,B,]2 | [D,B,]3 [C,A,] [B,,B,]2 | %6
 [B,,B,]2 [B,,B,]2 [B,,B,]2 | [C,G,]2 [C,C]2 [C,B,]2 | [F,A,]4 [F,A,]2 | %9
 [B,,B,]2 [B,,B,]2 [B,,B,]>[B,,B,] | [F,A,]2 [F,A,]2 [F,A,]2 | [F,A,]2 [F,C]2 [F,A,]>F, | %12
 [B,,F,]2 [B,,F,]2 [B,,B,]2 | [D,B,]3 [C,A,] [B,,B,]2 | [E,B,]2 [E,B,]2 [C,E]2 | %15
 [F,E]2 [F,D]2 [F,C]2 | [B,,B,]4 || F,>[F,G,] | [F,A,]3 [F,^G,] [F,A,]2 | [F,B,]2 [F,A,]2 [F,C]2 | %20
 [B,,C]2 [C,C]2 (C>B,) | [F,B,]2 [F,A,]2 F,>[E,G,] | [F,A,]3 [F,^G,] [F,A,]2 | %23
 [F,B,]2 [F,A,]2 [F,C]2 | [C,C]2 [C,C]2 [C,B,]2 | [F,A,]4 [F,A,]2 | %26
 [B,,B,]2 [B,,B,]2 [B,,B,]>[B,,B,] | [F,A,]2 [F,A,]2 [F,A,]2 | [F,A,]2 [F,C]2 [F,A,]>F, | %29
 [B,,F,]2 [B,,F,]2 [B,,B,]2 | [D,B,]3 [C,A,] [B,,B,]2 | [E,B,]2 [E,B,]2 [C,E]2 | %32
 [F,E]2 [F,D]2 [F,C]2 | [B,,B,]4 |] %34
V:4
 x2 | x6 | x6 | x11/2 F,/ | x6 | x6 | x6 | x6 | x6 | x6 | x6 | x11/2 F,/ | x6 | x6 | x6 | x6 | %16
 x4 || x2 | x6 | x6 | x4 C,2 | x4 F,3/2 x/ | x6 | x6 | x6 | x6 | x6 | x6 | x11/2 F,/ | x6 | x6 | %31
 x6 | x6 | x4 |] %34

